packages/dnb-ui-lib/assets/icons/calendar.svg

<svg width="16" height="16" viewBox="0 0 16 16" fill="none" xmlns="http://www.w3.org/2000/svg">
<path d="M6.00581 1C6.00581 0.585786 5.67003 0.25 5.25581 0.25C4.8416 0.25 4.50581 0.585786 4.50581 1H6.00581ZM4.50581 4.25581C4.50581 4.67003 4.8416 5.00581 5.25581 5.00581C5.67003 5.00581 6.00581 4.67003 6.00581 4.25581H4.50581ZM11.5 1C11.5 0.585786 11.1642 0.25 10.75 0.25C10.3358 0.25 10 0.585786 10 1H11.5ZM10 4.25581C10 4.67003 10.3358 5.00581 10.75 5.00581C11.1642 5.00581 11.5 4.67003 11.5 4.25581H10ZM2 15.75H14V14.25H2V15.75ZM4.50581 1V4.25581H6.00581V1H4.50581ZM10 1V4.25581H11.5V1H10ZM14 1.87791H2V3.37791H14V1.87791ZM0.25 3.62791V7.5H1.75V3.62791H0.25ZM0.25 7.5V14H1.75V7.5H0.25ZM15.75 14V7.5H14.25V14H15.75ZM15.75 7.5V3.62791H14.25V7.5H15.75ZM1 8.25H15V6.75H1V8.25ZM14 3.37791C14.1381 3.37791 14.25 3.48984 14.25 3.62791H15.75C15.75 2.66141 14.9665 1.87791 14 1.87791V3.37791ZM14 15.75C14.9665 15.75 15.75 14.9665 15.75 14H14.25C14.25 14.1381 14.1381 14.25 14 14.25V15.75ZM2 14.25C1.86193 14.25 1.75 14.1381 1.75 14H0.25C0.25 14.9665 1.0335 15.75 2 15.75V14.25ZM2 1.87791C1.0335 1.87791 0.25 2.66141 0.25 3.62791H1.75C1.75 3.48984 1.86193 3.37791 2 3.37791V1.87791Z" fill="black"/>
</svg>

<svg width="16" height="16" viewBox="0 0 16 16" fill="none" xmlns="http://www.w3.org/2000/svg"><path d="M6.006 1a.75.75 0 10-1.5 0h1.5zm-1.5 3.256a.75.75 0 101.5 0h-1.5zM11.5 1A.75.75 0 0010 1h1.5zM10 4.256a.75.75 0 001.5 0H10zM2 15.75h12v-1.5H2v1.5zM4.506 1v3.256h1.5V1h-1.5zM10 1v3.256h1.5V1H10zm4 .878H2v1.5h12v-1.5zM.25 3.628V7.5h1.5V3.628H.25zm0 3.872V14h1.5V7.5H.25zm15.5 6.5V7.5h-1.5V14h1.5zm0-6.5V3.628h-1.5V7.5h1.5zM1 8.25h14v-1.5H1v1.5zm13-4.872a.25.25 0 01.25.25h1.5A1.75 1.75 0 0014 1.878v1.5zm0 12.372A1.75 1.75 0 0015.75 14h-1.5a.25.25 0 01-.25.25v1.5zm-12-1.5a.25.25 0 01-.25-.25H.25c0 .966.784 1.75 1.75 1.75v-1.5zM2 1.878a1.75 1.75 0 00-1.75 1.75h1.5a.25.25 0 01.25-.25v-1.5z" fill="#000"/></svg>
